src/sprite/whishmap/wm-7.svg

<svg width="53" height="58" viewBox="0 0 53 58" fill="none" xmlns="http://www.w3.org/2000/svg">
<path d="M31.6428 57C30.6262 56.6838 29.6798 56.1558 29.4976 55.084C29.1363 52.9373 29.1076 50.7652 29.9676 48.6912C30.7408 46.8158 32.1754 45.2814 34.0055 44.3723C35.3674 43.661 36.7965 43.0128 38.0274 42.1118C43.6862 37.97 46.506 32.3707 46.2438 25.4087C46.0713 20.8692 44.3031 16.5313 41.244 13.1425C38.1848 9.75365 34.0263 7.52605 29.4848 6.8435C18.9345 5.19312 8.70386 12.4491 6.96785 22.8415C5.46523 31.7763 9.96988 40.2306 18.3014 44.0562C21.1117 45.343 22.9628 47.3728 23.4775 50.4016C23.6731 51.7714 23.7139 53.1584 23.599 54.5371C23.5223 55.8713 22.5759 56.6048 21.361 57H3.33597C3.16652 56.9368 2.99709 56.8735 2.82764 56.804C1.69908 56.3329 1.05327 55.4887 1.02769 54.2746C0.986129 52.346 0.99572 50.4143 1.02769 48.4825C1.04635 47.8288 1.29987 47.2031 1.7428 46.7176C2.18573 46.2321 2.7891 45.9185 3.44467 45.833C4.92172 45.6623 6.22613 46.4654 6.54904 47.8597C6.65453 48.5235 6.69415 49.1959 6.66733 49.8673C6.66733 50.3668 6.66733 50.8696 6.66733 51.3723H17.8922C17.9051 51.328 17.9126 51.2823 17.9146 51.2363C17.9075 51.1817 17.8957 51.1277 17.8795 51.0751C17.5597 50.0633 16.8148 49.5258 15.8845 49.1022C10.5588 46.6951 6.23587 42.5449 3.64519 37.3518C1.05452 32.1587 0.354727 26.2408 1.6639 20.5967C4.74588 7.17232 18.359 -1.37996 31.9274 1.58884C37.8813 2.87206 43.1712 6.22751 46.8335 11.044C50.4957 15.8606 52.2867 21.8177 51.8803 27.8306C51.3592 35.7094 47.7497 42.0043 41.33 46.6645C39.9456 47.67 38.3695 48.4193 36.8541 49.2255C35.9429 49.7061 35.2715 50.3068 35.0701 51.3786H46.3366C46.3366 50.9391 46.3366 50.5249 46.3366 50.1139C46.3063 49.3865 46.3373 48.6579 46.4293 47.9355C46.7042 46.5539 48.0278 45.7002 49.4889 45.8362C50.1748 45.9081 50.8095 46.2286 51.2706 46.736C51.7317 47.2433 51.9865 47.9015 51.9858 48.5837C52.0178 50.2246 51.9858 51.8623 51.9858 53.5032C51.9858 55.5583 51.5414 56.2317 49.6775 57H31.6428Z" stroke="white" stroke-width="2" stroke-miterlimit="10"/>
</svg>

<svg viewBox="0 0 53 58" fill="none" xmlns="http://www.w3.org/2000/svg"><path fill="none" d="M31.643 57c-1.017-.316-1.963-.844-2.145-1.916-.362-2.147-.39-4.319.47-6.393a8.406 8.406 0 0 1 4.037-4.319c1.362-.711 2.791-1.36 4.022-2.26 5.66-4.142 8.479-9.741 8.217-16.703a19.404 19.404 0 0 0-5-12.266 19.803 19.803 0 0 0-11.76-6.3c-10.55-1.65-20.78 5.606-22.516 15.998C5.465 31.776 9.97 40.231 18.3 44.056c2.81 1.287 4.662 3.317 5.177 6.346.195 1.37.236 2.756.121 4.135-.077 1.334-1.023 2.068-2.238 2.463H3.336c-.17-.063-.339-.127-.508-.196-1.129-.471-1.775-1.315-1.8-2.53-.042-1.928-.032-3.86 0-5.791.018-.654.272-1.28.715-1.765a2.792 2.792 0 0 1 1.702-.885c1.477-.17 2.781.632 3.104 2.027.106.663.145 1.336.118 2.007v1.505h11.225a.576.576 0 0 0 .023-.136.975.975 0 0 0-.035-.16c-.32-1.013-1.065-1.55-1.995-1.974a25.312 25.312 0 0 1-12.24-11.75 24.906 24.906 0 0 1-1.981-16.755C4.746 7.172 18.359-1.38 31.927 1.589a25.454 25.454 0 0 1 14.907 9.455 24.947 24.947 0 0 1 5.046 16.787c-.52 7.878-4.13 14.173-10.55 18.833-1.384 1.006-2.96 1.755-4.476 2.561-.911.481-1.582 1.082-1.784 2.154h11.267v-1.265c-.03-.727 0-1.456.092-2.178.275-1.382 1.599-2.236 3.06-2.1.686.072 1.32.393 1.782.9.46.507.715 1.166.715 1.848.032 1.64 0 3.278 0 4.92 0 2.054-.445 2.728-2.308 3.496H31.643Z" stroke="#fff" stroke-width="2" stroke-miterlimit="10"/></svg>
